; generated by Slic3r 0.9.7 on 2013-03-16 at 10:47:27

; layer_height = 0.4
; perimeters = 3
; top_solid_layers = 3
; bottom_solid_layers = 3
; fill_density = 0.4
; perimeter_speed = 70
; infill_speed = 80
; travel_speed = 130
; scale = 1
; nozzle_diameter = 0.5
; filament_diameter = 3
; extrusion_multiplier = 1
; perimeters extrusion width = 0.53mm
; infill extrusion width = 0.53mm
; first layer extrusion width = 0.80mm

M107
M190 S90 ; wait for bed temperature to be reached
M104 S250 ; set temperature
G28 ; home all axes
M109 S250 ; wait for temperature to be reached
G90 ; use absolute coordinates
G21 ; set units to millimeters
G92 E0
M82 ; use absolute distances for extrusion
G1 F1800.000 E-1.00000
G92 E0
G1 Z0.400 F7800.000
G1 X69.310 Y37.510
G1 F1800.000 E1.00000
G1 X69.710 Y36.800 F1260.000 E1.03392
G1 X70.180 Y36.140 E1.06765
G1 X70.730 Y35.540 E1.10153
G1 X71.140 Y35.180 E1.12425
G1 X71.570 Y34.860 E1.14656
G1 X72.030 Y34.570 E1.16920
G1 X72.510 Y34.310 E1.19192
G1 X73.010 Y34.100 E1.21450
G1 X73.790 Y33.860 E1.24847
G1 X74.590 Y33.710 E1.28235
G1 X75.400 Y33.660 E1.31613
G1 X94.870 Y33.670 E2.12662
G1 X95.410 Y33.710 E2.14916
G1 X95.950 Y33.800 E2.17195
G1 X96.470 Y33.930 E2.19426
G1 X96.990 Y34.100 E2.21704
G1 X97.490 Y34.310 E2.23961
G1 X97.970 Y34.570 E2.26233
G1 X98.430 Y34.860 E2.28497
G1 X98.860 Y35.180 E2.30728
G1 X99.270 Y35.540 E2.33000
G1 X99.820 Y36.140 E2.36388
G1 X100.290 Y36.800 E2.39761
G1 X100.690 Y37.510 E2.43153
G1 X100.900 Y38.010 E2.45411
G1 X101.140 Y38.790 E2.48808
G1 X101.290 Y39.590 E2.52196
G1 X101.330 Y40.130 E2.54450
G1 X101.340 Y59.600 E3.35499
G1 X101.290 Y60.410 E3.38877
G1 X101.200 Y60.950 E3.41156
G1 X100.990 Y61.730 E3.44519
G1 X100.800 Y62.240 E3.46784
G1 X100.690 Y62.490 E3.47921
G1 X100.430 Y62.970 E3.50194
G1 X100.140 Y63.430 E3.52457
G1 X99.820 Y63.860 E3.54688
G1 X99.270 Y64.460 E3.58077
G1 X98.650 Y64.980 E3.61445
G1 X97.970 Y65.430 E3.64840
G1 X97.490 Y65.690 E3.67112
G1 X97.240 Y65.800 E3.68249
G1 X96.730 Y65.990 E3.70514
G1 X96.210 Y66.140 E3.72767
G1 X95.410 Y66.290 E3.76156
G1 X94.600 Y66.340 E3.79534
G1 X75.130 Y66.330 E4.60583
G1 X74.590 Y66.290 E4.62837
G1 X74.050 Y66.200 E4.65116
G1 X73.530 Y66.070 E4.67347
G1 X73.010 Y65.900 E4.69624
G1 X72.510 Y65.690 E4.71882
G1 X72.030 Y65.430 E4.74154
G1 X71.570 Y65.140 E4.76418
G1 X71.140 Y64.820 E4.78649
G1 X70.730 Y64.460 E4.80920
G1 X70.180 Y63.860 E4.84309
G1 X69.710 Y63.200 E4.87681
G1 X69.310 Y62.490 E4.91074
G1 X69.100 Y61.990 E4.93331
G1 X68.860 Y61.210 E4.96728
G1 X68.710 Y60.410 E5.00117
G1 X68.670 Y59.870 E5.02371
G1 X68.660 Y40.400 E5.83420
G1 X68.710 Y39.590 E5.86798
G1 X68.800 Y39.050 E5.89077
G1 X69.010 Y38.270 E5.92439
G1 X69.266 Y37.611 E5.95382
G1 X69.310 Y37.510 E5.95841
G1 F1800.000 E4.95841
G92 E0
G1 X93.129 Y41.871 F7800.000
G1 F1800.000 E1.00000
G1 X93.129 Y58.129 F1260.000 E1.67676
G1 X76.871 Y58.129 E2.35352
G1 X76.871 Y41.871 E3.03028
G1 X93.018 Y41.871 E3.70245
G1 X93.129 Y41.871 E3.70704
G1 X93.864 Y41.136 F7800.000
G1 X93.864 Y58.864 F1260.000 E4.44505
G1 X76.136 Y58.864 E5.18305
G1 X76.136 Y41.136 E5.92106
G1 X93.754 Y41.136 E6.65447
G1 X93.864 Y41.136 E6.65906
G1 X94.600 Y40.400 F7800.000
G1 X94.600 Y59.600 F1260.000 E7.45831
G1 X75.400 Y59.600 E8.25756
G1 X75.400 Y40.400 E9.05681
G1 X94.490 Y40.400 E9.85146
G1 X94.600 Y40.400 E9.85606
G1 X95.247 Y40.773 F7800.000
G1 F1800.000 E8.85606
G92 E0
G1 X77.841 Y57.627 F7800.000
G1 F1800.000 E1.00000
G1 X77.373 Y57.159 F1440.000 E1.02799
G1 X77.373 Y56.103 E1.07263
G1 X78.897 Y57.627 E1.16374
G1 X79.953 Y57.627 E1.20837
G1 X77.373 Y55.047 E1.36261
G1 X77.373 Y53.990 E1.40725
G1 X81.009 Y57.627 E1.62461
G1 X82.066 Y57.627 E1.66925
G1 X77.373 Y52.934 E1.94973
G1 X77.373 Y51.878 E1.99437
G1 X83.122 Y57.627 E2.33798
G1 X84.178 Y57.627 E2.38261
G1 X77.373 Y50.822 E2.78934
G1 X77.373 Y49.766 E2.83398
G1 X85.234 Y57.627 E3.30384
G1 X86.290 Y57.627 E3.34848
G1 X77.373 Y48.710 E3.88146
G1 X77.373 Y47.653 E3.92609
G1 X87.347 Y57.627 E4.52220
G1 X88.403 Y57.627 E4.56683
G1 X77.373 Y46.597 E5.22606
G1 X77.373 Y45.541 E5.27069
G1 X89.459 Y57.627 E5.99304
G1 X90.515 Y57.627 E6.03768
G1 X77.373 Y44.485 E6.82315
G1 X77.373 Y43.429 E6.86778
G1 X91.571 Y57.627 E7.71638
G1 X92.627 Y57.627 E7.76101
G1 X77.373 Y42.373 E8.67272
G1 X78.429 Y42.373 E8.71735
G1 X92.627 Y56.571 E9.56594
G1 X92.627 Y55.515 E9.61058
G1 X79.485 Y42.373 E10.39605
G1 X80.541 Y42.373 E10.44068
G1 X92.627 Y54.459 E11.16303
G1 X92.627 Y53.403 E11.20767
G1 X81.597 Y42.373 E11.86689
G1 X82.653 Y42.373 E11.91153
G1 X92.627 Y52.347 E12.50763
G1 X92.627 Y51.290 E12.55227
G1 X83.710 Y42.373 E13.08525
G1 X84.766 Y42.373 E13.12988
G1 X92.627 Y50.234 E13.59974
G1 X92.627 Y49.178 E13.64437
G1 X85.822 Y42.373 E14.05110
G1 X86.878 Y42.373 E14.09574
G1 X92.627 Y48.122 E14.43935
G1 X92.627 Y47.066 E14.48398
G1 X87.934 Y42.373 E14.76447
G1 X88.990 Y42.373 E14.80910
G1 X92.627 Y46.010 E15.02646
G1 X92.627 Y44.953 E15.07110
G1 X90.047 Y42.373 E15.22533
G1 X91.103 Y42.373 E15.26997
G1 X92.627 Y43.897 E15.36108
G1 X92.627 Y42.841 E15.40572
G1 X92.159 Y42.373 E15.43371
M106 S255
M104 S245 ; set temperature
G1 F1800.000 E14.43371
G92 E0
G1 Z0.800 F7800.000
G1 X76.302 Y41.302
G1 F1800.000 E1.00000
G1 X93.698 Y41.302 F1427.163 E1.51155
G1 X93.698 Y58.698 E2.02310
G1 X76.302 Y58.698 E2.53465
G1 X76.302 Y41.380 E3.04390
G1 X76.302 Y41.302 E3.04619
G1 X75.782 Y40.782 F7800.000
G1 X94.218 Y40.782 F1427.163 E3.58830
G1 X94.218 Y59.218 E4.13041
G1 X75.782 Y59.218 E4.67252
G1 X75.782 Y40.860 E5.21234
G1 X75.782 Y40.782 E5.21463
G1 X75.263 Y40.263 F7800.000
G1 X94.737 Y40.263 F1427.163 E5.78730
G1 X94.737 Y59.737 E6.35997
G1 X75.263 Y59.737 E6.93263
G1 X75.263 Y40.340 E7.50301
G1 X75.263 Y40.263 E7.50530
G1 X75.525 Y39.807 F7800.000
G1 F1800.000 E6.50530
G92 E0
G1 X93.344 Y58.013 F7800.000
G1 F1800.000 E1.00000
G1 X93.013 Y58.344 F1631.043 E1.01392
G1 X92.270 Y58.344 E1.03604
G1 X93.344 Y57.270 E1.08125
G1 X93.344 Y56.526 E1.10337
G1 X91.526 Y58.344 E1.17986
G1 X90.783 Y58.344 E1.20198
G1 X93.344 Y55.783 E1.30975
G1 X93.344 Y55.039 E1.33187
G1 X90.039 Y58.344 E1.47092
G1 X89.296 Y58.344 E1.49304
G1 X93.344 Y54.296 E1.66337
G1 X93.344 Y53.552 E1.68549
G1 X88.552 Y58.344 E1.88711
G1 X87.809 Y58.344 E1.90923
G1 X93.344 Y52.809 E2.14213
G1 X93.344 Y52.065 E2.16425
G1 X87.065 Y58.344 E2.42843
G1 X86.322 Y58.344 E2.45055
G1 X93.344 Y51.322 E2.74602
G1 X93.344 Y50.578 E2.76814
G1 X85.578 Y58.344 E3.09489
G1 X84.835 Y58.344 E3.11701
G1 X93.344 Y49.835 E3.47504
G1 X93.344 Y49.091 E3.49716
G1 X84.091 Y58.344 E3.88648
G1 X83.348 Y58.344 E3.90860
G1 X93.344 Y48.348 E4.32919
G1 X93.344 Y47.604 E4.35131
G1 X82.604 Y58.344 E4.80319
G1 X81.861 Y58.344 E4.82531
G1 X93.344 Y46.861 E5.30847
G1 X93.344 Y46.117 E5.33060
G1 X81.117 Y58.344 E5.84504
G1 X80.373 Y58.344 E5.86716
G1 X93.344 Y45.373 E6.41289
G1 X93.344 Y44.630 E6.43501
G1 X79.630 Y58.344 E7.01202
G1 X78.886 Y58.344 E7.03414
G1 X93.344 Y43.886 E7.64243
G1 X93.344 Y43.143 E7.66455
G1 X78.143 Y58.344 E8.30412
G1 X77.399 Y58.344 E8.32625
G1 X93.344 Y42.399 E8.99710
G1 X93.344 Y41.656 E9.01922
G1 X76.656 Y58.344 E9.72135
G1 X76.656 Y57.601 E9.74347
G1 X92.600 Y41.656 E10.41432
G1 X91.857 Y41.656 E10.43644
G1 X76.656 Y56.857 E11.07601
G1 X76.656 Y56.113 E11.09813
G1 X91.113 Y41.656 E11.70642
G1 X90.370 Y41.656 E11.72854
G1 X76.656 Y55.370 E12.30555
G1 X76.656 Y54.627 E12.32767
G1 X89.626 Y41.656 E12.87339
G1 X88.883 Y41.656 E12.89551
G1 X76.656 Y53.883 E13.40995
G1 X76.656 Y53.139 E13.43207
G1 X88.139 Y41.656 E13.91523
G1 X87.396 Y41.656 E13.93735
G1 X76.656 Y52.396 E14.38923
G1 X76.656 Y51.652 E14.41135
G1 X86.652 Y41.656 E14.83194
G1 X85.909 Y41.656 E14.85407
G1 X76.656 Y50.909 E15.24338
G1 X76.656 Y50.165 E15.26550
G1 X85.165 Y41.656 E15.62353
G1 X84.422 Y41.656 E15.64564
G1 X76.656 Y49.422 E15.97239
G1 X76.656 Y48.678 E15.99451
G1 X83.678 Y41.656 E16.28998
G1 X82.935 Y41.656 E16.31209
G1 X76.656 Y47.935 E16.57628
G1 X76.656 Y47.191 E16.59840
G1 X82.191 Y41.656 E16.83129
G1 X81.448 Y41.656 E16.85341
G1 X76.656 Y46.448 E17.05503
G1 X76.656 Y45.704 E17.07715
G1 X80.704 Y41.656 E17.24748
G1 X79.961 Y41.656 E17.26960
G1 X76.656 Y44.961 E17.40865
G1 X76.656 Y44.217 E17.43077
G1 X79.217 Y41.656 E17.53854
G1 X78.474 Y41.656 E17.56066
G1 X76.656 Y43.474 E17.63714
G1 X76.656 Y42.730 E17.65926
G1 X77.730 Y41.656 E17.70447
G1 X76.987 Y41.656 E17.72659
G1 X76.656 Y41.987 E17.74051
G1 F1800.000 E16.74051
G92 E0
G1 Z1.200 F7800.000
G1 X93.698 Y41.302
G1 F1800.000 E1.00000
G1 X93.698 Y58.698 F1427.163 E1.51155
G1 X76.302 Y58.698 E2.02310
G1 X76.302 Y41.302 E2.53465
G1 X93.620 Y41.302 E3.04390
G1 X93.698 Y41.302 E3.04619
G1 X94.218 Y40.782 F7800.000
G1 X94.218 Y59.218 F1427.163 E3.58830
G1 X75.782 Y59.218 E4.13041
G1 X75.782 Y40.782 E4.67252
G1 X94.140 Y40.782 E5.21234
G1 X94.218 Y40.782 E5.21463
G1 X94.737 Y40.263 F7800.000
G1 X94.737 Y59.737 F1427.163 E5.78730
G1 X75.263 Y59.737 E6.35997
G1 X75.263 Y40.263 E6.93263
G1 X94.660 Y40.263 E7.50301
G1 X94.737 Y40.263 E7.50530
G1 X95.193 Y40.525 F7800.000
G1 F1800.000 E6.50530
G92 E0
G1 X76.987 Y58.344 F7800.000
G1 F1800.000 E1.00000
G1 X76.656 Y58.013 F1631.044 E1.01392
G1 X76.656 Y57.270 E1.03604
G1 X77.730 Y58.344 E1.08124
G1 X78.474 Y58.344 E1.10337
G1 X76.656 Y56.526 E1.17985
G1 X76.656 Y55.783 E1.20197
G1 X79.217 Y58.344 E1.30974
G1 X79.961 Y58.344 E1.33186
G1 X76.656 Y55.039 E1.47092
G1 X76.656 Y54.296 E1.49304
G1 X80.704 Y58.344 E1.66337
G1 X81.448 Y58.344 E1.68550
G1 X76.656 Y53.552 E1.88711
G1 X76.656 Y52.809 E1.90923
G1 X82.191 Y58.344 E2.14214
G1 X82.935 Y58.344 E2.16426
G1 X76.656 Y52.065 E2.42844
G1 X76.656 Y51.322 E2.45056
G1 X83.678 Y58.344 E2.74603
G1 X84.422 Y58.344 E2.76814
G1 X76.656 Y50.578 E3.09489
G1 X76.656 Y49.834 E3.11701
G1 X85.165 Y58.344 E3.47505
G1 X85.909 Y58.344 E3.49717
G1 X76.656 Y49.091 E3.88648
G1 X76.656 Y48.348 E3.90860
G1 X86.652 Y58.344 E4.32919
G1 X87.396 Y58.344 E4.35132
G1 X76.656 Y47.604 E4.80320
G1 X76.656 Y46.860 E4.82532
G1 X88.140 Y58.344 E5.30848
G1 X88.883 Y58.344 E5.33060
G1 X76.656 Y46.117 E5.84504
G1 X76.656 Y45.373 E5.86716
G1 X89.626 Y58.344 E6.41289
G1 X90.370 Y58.344 E6.43501
G1 X76.656 Y44.630 E7.01202
G1 X76.656 Y43.886 E7.03414
G1 X91.114 Y58.344 E7.64243
G1 X91.857 Y58.344 E7.66455
G1 X76.656 Y43.143 E8.30413
G1 X76.656 Y42.399 E8.32625
G1 X92.601 Y58.344 E8.99710
G1 X93.344 Y58.344 E9.01922
G1 X76.656 Y41.656 E9.72135
G1 X77.399 Y41.656 E9.74347
G1 X93.344 Y57.600 E10.41432
G1 X93.344 Y56.857 E10.43644
G1 X78.143 Y41.656 E11.07602
G1 X78.887 Y41.656 E11.09814
G1 X93.344 Y56.114 E11.70643
G1 X93.344 Y55.370 E11.72855
G1 X79.630 Y41.656 E12.30556
G1 X80.374 Y41.656 E12.32768
G1 X93.344 Y54.626 E12.87340
G1 X93.344 Y53.883 E12.89552
G1 X81.117 Y41.656 E13.40996
G1 X81.860 Y41.656 E13.43208
G1 X93.344 Y53.139 E13.91524
G1 X93.344 Y52.396 E13.93736
G1 X82.604 Y41.656 E14.38924
G1 X83.348 Y41.656 E14.41136
G1 X93.344 Y51.652 E14.83195
G1 X93.344 Y50.909 E14.85407
G1 X84.091 Y41.656 E15.24338
G1 X84.835 Y41.656 E15.26551
G1 X93.344 Y50.165 E15.62353
G1 X93.344 Y49.422 E15.64565
G1 X85.578 Y41.656 E15.97240
G1 X86.322 Y41.656 E15.99452
G1 X93.344 Y48.678 E16.28998
G1 X93.344 Y47.935 E16.31210
G1 X87.065 Y41.656 E16.57628
G1 X87.809 Y41.656 E16.59841
G1 X93.344 Y47.191 E16.83130
G1 X93.344 Y46.448 E16.85342
G1 X88.552 Y41.656 E17.05504
G1 X89.296 Y41.656 E17.07716
G1 X93.344 Y45.704 E17.24750
G1 X93.344 Y44.961 E17.26962
G1 X90.039 Y41.656 E17.40866
G1 X90.783 Y41.656 E17.43079
G1 X93.344 Y44.217 E17.53855
G1 X93.344 Y43.474 E17.56067
G1 X91.526 Y41.656 E17.63716
G1 X92.270 Y41.656 E17.65928
G1 X93.344 Y42.730 E17.70448
G1 X93.344 Y41.987 E17.72660
G1 X93.013 Y41.656 E17.74052
G1 F1800.000 E16.74052
G92 E0
G1 Z1.600 F7800.000
G1 X93.698 Y58.698
G1 F1800.000 E1.00000
G1 X76.302 Y58.698 F871.946 E1.51155
G1 X76.302 Y41.302 E2.02310
G1 X93.698 Y41.302 E2.53465
G1 X93.698 Y58.620 E3.04390
G1 X93.698 Y58.698 E3.04619
G1 X94.218 Y59.218 F7800.000
G1 X75.782 Y59.218 F871.946 E3.58830
G1 X75.782 Y40.782 E4.13041
G1 X94.218 Y40.782 E4.67252
G1 X94.218 Y59.140 E5.21234
G1 X94.218 Y59.218 E5.21463
G1 X94.737 Y59.737 F7800.000
G1 X75.263 Y59.737 F871.946 E5.78730
G1 X75.263 Y40.263 E6.35997
G1 X94.737 Y40.263 E6.93263
G1 X94.737 Y59.660 E7.50301
G1 X94.737 Y59.737 E7.50530
G1 X94.478 Y60.188 F7800.000
G1 F1800.000 E6.50530
G92 E0
G1 X93.344 Y58.013 F7800.000
G1 F1800.000 E1.00000
G1 X93.013 Y58.344 F996.510 E1.01376
G1 X91.176 Y58.344 E1.06778
G1 X93.344 Y56.176 E1.15794
G1 X93.344 Y54.339 E1.21197
G1 X89.339 Y58.344 E1.37853
G1 X87.502 Y58.344 E1.43255
G1 X93.344 Y52.502 E1.67551
G1 X93.344 Y50.664 E1.72953
G1 X85.664 Y58.344 E2.04889
G1 X83.827 Y58.344 E2.10292
G1 X93.344 Y48.827 E2.49868
G1 X93.344 Y46.990 E2.55270
G1 X81.990 Y58.344 E3.02486
G1 X80.153 Y58.344 E3.07889
G1 X93.344 Y45.153 E3.62745
G1 X93.344 Y43.316 E3.68147
G1 X78.316 Y58.344 E4.30644
G1 X76.656 Y58.167 E4.35552
G1 X93.167 Y41.656 E5.04212
G1 X91.329 Y41.656 E5.09615
G1 X76.656 Y56.329 E5.70635
G1 X76.656 Y54.492 E5.76037
G1 X89.492 Y41.656 E6.29417
G1 X87.655 Y41.656 E6.34820
G1 X76.656 Y52.655 E6.80560
G1 X76.656 Y50.818 E6.85962
G1 X85.818 Y41.656 E7.24062
G1 X83.981 Y41.656 E7.29464
G1 X76.656 Y48.981 E7.59924
G1 X76.656 Y47.143 E7.65327
G1 X82.143 Y41.656 E7.88147
G1 X80.306 Y41.656 E7.93549
G1 X76.656 Y45.306 E8.08729
G1 X76.656 Y43.469 E8.14131
G1 X78.469 Y41.656 E8.21671
G1 F1800.000 E7.21671
G92 E0
G1 Z2.000 F7800.000
G1 X76.302 Y58.698
G1 F1800.000 E1.00000
G1 X76.302 Y41.302 F871.946 E1.51155
G1 X93.698 Y41.302 E2.02310
G1 X93.698 Y58.698 E2.53465
G1 X76.380 Y58.698 E3.04390
G1 X76.302 Y58.698 E3.04619
G1 X75.782 Y59.218 F7800.000
G1 X75.782 Y40.782 F871.946 E3.58830
G1 X94.218 Y40.782 E4.13041
G1 X94.218 Y59.218 E4.67252
G1 X75.860 Y59.218 E5.21234
G1 X75.782 Y59.218 E5.21463
G1 X75.263 Y59.737 F7800.000
G1 X75.263 Y40.263 F871.946 E5.78730
G1 X94.737 Y40.263 E6.35997
G1 X94.737 Y59.737 E6.93263
G1 X75.340 Y59.737 E7.50301
G1 X75.263 Y59.737 E7.50530
G1 X74.812 Y59.478 F7800.000
G1 F1800.000 E6.50530
G92 E0
G1 X76.987 Y58.344 F7800.000
G1 F1800.000 E1.00000
G1 X76.656 Y58.013 F996.510 E1.01376
G1 X76.656 Y56.176 E1.06778
G1 X78.824 Y58.344 E1.15795
G1 X80.661 Y58.344 E1.21197
G1 X76.656 Y54.339 E1.37853
G1 X76.656 Y52.502 E1.43256
G1 X82.498 Y58.344 E1.67552
G1 X84.336 Y58.344 E1.72954
G1 X76.656 Y50.664 E2.04890
G1 X76.656 Y48.827 E2.10292
G1 X86.173 Y58.344 E2.49868
G1 X88.010 Y58.344 E2.55270
G1 X76.656 Y46.990 E3.02486
G1 X76.656 Y45.153 E3.07889
G1 X89.847 Y58.344 E3.62745
G1 X91.684 Y58.344 E3.68147
G1 X76.656 Y43.316 E4.30644
G1 X76.833 Y41.656 E4.35552
G1 X93.344 Y58.167 E5.04212
G1 X93.344 Y56.329 E5.09614
G1 X78.671 Y41.656 E5.70635
G1 X80.508 Y41.656 E5.76037
G1 X93.344 Y54.492 E6.29417
G1 X93.344 Y52.655 E6.34819
G1 X82.345 Y41.656 E6.80559
G1 X84.182 Y41.656 E6.85962
G1 X93.344 Y50.818 E7.24061
G1 X93.344 Y48.981 E7.29463
G1 X86.019 Y41.656 E7.59924
G1 X87.856 Y41.656 E7.65326
G1 X93.344 Y47.143 E7.88146
G1 X93.344 Y45.306 E7.93549
G1 X89.694 Y41.656 E8.08729
G1 X91.531 Y41.656 E8.14131
G1 X93.344 Y43.469 E8.21671
G1 F1800.000 E7.21671
G92 E0
G1 Z2.400 F7800.000
G1 X93.698 Y41.302
G1 F1800.000 E1.00000
G1 X93.698 Y58.698 F871.946 E1.51155
G1 X76.302 Y58.698 E2.02310
G1 X76.302 Y41.302 E2.53465
G1 X93.620 Y41.302 E3.04390
G1 X93.698 Y41.302 E3.04619
G1 X94.218 Y40.782 F7800.000
G1 X94.218 Y59.218 F871.946 E3.58830
G1 X75.782 Y59.218 E4.13041
G1 X75.782 Y40.782 E4.67252
G1 X94.140 Y40.782 E5.21234
G1 X94.218 Y40.782 E5.21463
G1 X94.737 Y40.263 F7800.000
G1 X94.737 Y59.737 F871.946 E5.78730
G1 X75.263 Y59.737 E6.35997
G1 X75.263 Y40.263 E6.93263
G1 X94.660 Y40.263 E7.50301
G1 X94.737 Y40.263 E7.50530
G1 X95.188 Y40.522 F7800.000
G1 F1800.000 E6.50530
G92 E0
G1 X93.344 Y58.013 F7800.000
G1 F1800.000 E1.00000
G1 X93.013 Y58.344 F996.510 E1.01376
G1 X91.176 Y58.344 E1.06778
G1 X93.344 Y56.176 E1.15794
G1 X93.344 Y54.339 E1.21197
G1 X89.339 Y58.344 E1.37853
G1 X87.502 Y58.344 E1.43255
G1 X93.344 Y52.502 E1.67551
G1 X93.344 Y50.664 E1.72953
G1 X85.664 Y58.344 E2.04889
G1 X83.827 Y58.344 E2.10292
