%
(Header)
(Generated by gcodetools from Inkscape.)
(Using default header. To add your own header create file "header" in the output dir.)
M3
(Header end.)
G21 (All units in mm)

(Start cutting path id: path5506)
(Change tool to Default tool)

G00 Z5.000000
G00 X-76.120504 Y155.222230

G01 Z-0.125000 F100.0(Penetrate)
G01 X-82.848577 Y159.435514 Z-0.125000 F400.000000
G01 X-79.826663 Y152.094753 Z-0.125000
G01 X-84.923464 Y158.180915 Z-0.125000
G01 X-84.317874 Y150.265612 Z-0.125000
G01 X-87.284493 Y157.628894 Z-0.125000
G01 X-89.154506 Y149.913859 Z-0.125000
G01 X-89.700549 Y157.833491 Z-0.125000
G01 X-93.863115 Y151.073919 Z-0.125000
G01 X-91.935131 Y158.774674 Z-0.125000
G01 X-97.982787 Y153.632244 Z-0.125000
G01 X-93.769502 Y160.360317 Z-0.125000
G01 X-101.110263 Y157.338406 Z-0.125000
G01 X-95.024101 Y162.435206 Z-0.125000
G01 X-102.939405 Y161.829617 Z-0.125000
G01 X-95.576122 Y164.796235 Z-0.125000
G01 X-103.291158 Y166.666248 Z-0.125000
G01 X-95.371525 Y167.212289 Z-0.125000
G01 X-102.131098 Y171.374855 Z-0.125000
G01 X-94.430343 Y169.446871 Z-0.125000
G01 X-99.572773 Y175.494529 Z-0.125000
G01 X-92.844700 Y171.281242 Z-0.125000
G01 X-95.866611 Y178.622006 Z-0.125000
G01 X-90.769810 Y172.535844 Z-0.125000
G01 X-91.375400 Y180.451147 Z-0.125000
G01 X-88.408781 Y173.087862 Z-0.125000
G01 X-86.538769 Y180.802900 Z-0.125000
G01 X-85.992728 Y172.883268 Z-0.125000
G01 X-81.830162 Y179.642837 Z-0.125000
G01 X-83.758146 Y171.942082 Z-0.125000
G01 X-77.710488 Y177.084513 Z-0.125000
G01 X-81.923775 Y170.356439 Z-0.125000
G01 X-74.583011 Y173.378353 Z-0.125000
G01 X-80.669173 Y168.281553 Z-0.125000
G01 X-72.753870 Y168.887142 Z-0.125000
G01 X-80.117152 Y165.920524 Z-0.125000
G01 X-72.402116 Y164.050511 Z-0.125000
G01 X-80.321749 Y163.504467 Z-0.125000
G01 X-73.562179 Y159.341901 Z-0.125000
G01 X-81.262934 Y161.269885 Z-0.125000
G01 X-76.120504 Y155.222230 Z-0.125000
G00 Z5.000000

(End cutting path id: path5506)


(Footer)
M5
G00 X0.0000 Y0.0000
M2
(Using default footer. To add your own footer create file "footer" in the output dir.)
(end)
%