%
(Header)
(Generated by gcodetools from Inkscape.)
(Using default header. To add your own header create file "header" in the output dir.)
M3 (not necessary)
(Header end.)
G21 (All units in mm) (not necessary)

(Start cutting path id: path2989)
(Change tool to Default tool)

G00 Z5.000000 (Rapid Positioning)
G00 X131.710420 Y171.337593 (Rapid Positioning)

G01 Z-0.125000 F100.0 (Penetrate) (F = Feed Rate)
G01 X102.432393 Y185.508454 Z-0.125000 F400.000000
G01 X73.154366 Y199.679314 Z-0.125000
G01 X100.065706 Y217.949398 Z-0.125000
G01 X126.977046 Y236.219482 Z-0.125000
G01 X129.343733 Y203.778538 Z-0.125000
G01 X131.710420 Y171.337593 Z-0.125000
G00 Z5.000000asd

(End cutting path id: path2989)


(Footer)
M5 (Spindle Stop)
G00 X0.0000 Y0.0000
M2 (End of Program)
(Using default footer. To add your own footer create file "footer" in the output dir.)
(end)
%